images/icones/icone-instagram.svg

<svg width="36" height="36" viewBox="0 0 36 36" fill="none" xmlns="http://www.w3.org/2000/svg">
<path d="M12 4.5C7.8645 4.5 4.5 7.8645 4.5 12V24C4.5 28.1355 7.8645 31.5 12 31.5H24C28.1355 31.5 31.5 28.1355 31.5 24V12C31.5 7.8645 28.1355 4.5 24 4.5H12ZM12 7.5H24C26.481 7.5 28.5 9.519 28.5 12V24C28.5 26.481 26.481 28.5 24 28.5H12C9.519 28.5 7.5 26.481 7.5 24V12C7.5 9.519 9.519 7.5 12 7.5ZM25.5 9C25.1022 9 24.7206 9.15804 24.4393 9.43934C24.158 9.72064 24 10.1022 24 10.5C24 10.8978 24.158 11.2794 24.4393 11.5607C24.7206 11.842 25.1022 12 25.5 12C25.8978 12 26.2794 11.842 26.5607 11.5607C26.842 11.2794 27 10.8978 27 10.5C27 10.1022 26.842 9.72064 26.5607 9.43934C26.2794 9.15804 25.8978 9 25.5 9ZM18 10.5C13.8645 10.5 10.5 13.8645 10.5 18C10.5 22.1355 13.8645 25.5 18 25.5C22.1355 25.5 25.5 22.1355 25.5 18C25.5 13.8645 22.1355 10.5 18 10.5ZM18 13.5C20.481 13.5 22.5 15.519 22.5 18C22.5 20.481 20.481 22.5 18 22.5C15.519 22.5 13.5 20.481 13.5 18C13.5 15.519 15.519 13.5 18 13.5Z" fill="#656565"/>
</svg>

<svg width="36" height="36" fill="none" xmlns="http://www.w3.org/2000/svg"><path d="M12 4.5c-4.136 0-7.5 3.364-7.5 7.5v12c0 4.136 3.364 7.5 7.5 7.5h12c4.136 0 7.5-3.364 7.5-7.5V12c0-4.136-3.364-7.5-7.5-7.5H12Zm0 3h12c2.481 0 4.5 2.019 4.5 4.5v12c0 2.481-2.019 4.5-4.5 4.5H12A4.505 4.505 0 0 1 7.5 24V12c0-2.481 2.019-4.5 4.5-4.5ZM25.5 9a1.5 1.5 0 1 0 0 3 1.5 1.5 0 0 0 0-3ZM18 10.5c-4.136 0-7.5 3.364-7.5 7.5s3.364 7.5 7.5 7.5 7.5-3.364 7.5-7.5-3.364-7.5-7.5-7.5Zm0 3c2.481 0 4.5 2.019 4.5 4.5s-2.019 4.5-4.5 4.5a4.505 4.505 0 0 1-4.5-4.5c0-2.481 2.019-4.5 4.5-4.5Z" fill="#656565"/></svg>
